X:2521
L:1/16
M:2/4
K:C
 gf |:"C" e2ge"G7" d2gf |"C" e2g2 cBce |"G7" d2f2 BdgB |"C" cegc' e2gf |"G7" e2ge d2gf | 
"C" e2g2 cBce |"G7" dfBd g2>B2 |1"C" c4 z2 gf :|2"C" c4 z2 gg |:"G7" f2GG G2G2 |"C" e2GG G2G2 | 
"G7" !>!d2G2 !>!d2G2 |"C" cBcd e2gg |"G7" !>!f2G2 !>!f2G2 |"C" eGce g2>e2 |"G7" dfBd g2>B2 |1 
"C" c4 z2 gg :|2"C" c4 z2 cc |:[K:F]"F" dc=Bc fcaf |"C7" egce bceb | dc=Bc ecge |"F" facf acfa | 
 dc=Bc fcaf |"C7" egce bceb | dceg c'bag |"F" f2Ac .f4 :|

